source/img/logo-light.svg

<svg width="121" height="26" viewBox="0 0 121 26" fill="none" xmlns="http://www.w3.org/2000/svg">
<path d="M34.956 9C35.516 9 35.992 9.07933 36.384 9.238C36.776 9.39667 37.1587 9.62067 37.532 9.91C37.6347 9.994 37.7233 10.036 37.798 10.036C37.9847 10.036 38.106 9.756 38.162 9.196H38.484C38.4467 9.83067 38.428 10.96 38.428 12.584H38.106C38.022 11.8933 37.91 11.366 37.77 11.002C37.63 10.638 37.392 10.3207 37.056 10.05C36.8227 9.826 36.552 9.658 36.244 9.546C35.936 9.42467 35.614 9.364 35.278 9.364C34.3353 9.364 33.6353 9.826 33.178 10.75C32.7207 11.6647 32.492 12.808 32.492 14.18C32.492 15.5427 32.73 16.6813 33.206 17.596C33.682 18.5107 34.3913 18.968 35.334 18.968C35.6513 18.968 35.964 18.912 36.272 18.8C36.5893 18.6787 36.8553 18.506 37.07 18.282C37.4153 18.0207 37.6533 17.694 37.784 17.302C37.924 16.91 38.0313 16.336 38.106 15.58H38.428C38.428 17.2693 38.4467 18.4453 38.484 19.108H38.162C38.134 18.8093 38.092 18.5993 38.036 18.478C37.9893 18.3473 37.9193 18.282 37.826 18.282C37.7513 18.282 37.6533 18.3193 37.532 18.394C37.112 18.6927 36.7107 18.9213 36.328 19.08C35.9453 19.2293 35.4833 19.304 34.942 19.304C33.9527 19.304 33.0847 19.1033 32.338 18.702C31.6007 18.3007 31.0267 17.722 30.616 16.966C30.2053 16.2007 30 15.2907 30 14.236C30 13.2093 30.21 12.2993 30.63 11.506C31.05 10.7127 31.6333 10.0967 32.38 9.658C33.136 9.21933 33.9947 9 34.956 9Z" fill="white"/>
<path d="M46.7871 9C47.7764 9 48.6398 9.20067 49.3771 9.602C50.1238 10.0033 50.7024 10.5867 51.1131 11.352C51.5238 12.108 51.7291 13.0133 51.7291 14.068C51.7291 15.0947 51.5191 16.0047 51.0991 16.798C50.6791 17.5913 50.0911 18.2073 49.3351 18.646C48.5884 19.0847 47.7344 19.304 46.7731 19.304C45.7838 19.304 44.9158 19.1033 44.1691 18.702C43.4318 18.3007 42.8578 17.722 42.4471 16.966C42.0364 16.2007 41.8311 15.2907 41.8311 14.236C41.8311 13.2093 42.0411 12.2993 42.4611 11.506C42.8811 10.7127 43.4644 10.0967 44.2111 9.658C44.9671 9.21933 45.8258 9 46.7871 9ZM46.7311 9.252C46.2178 9.252 45.7651 9.462 45.3731 9.882C44.9811 10.2927 44.6778 10.8713 44.4631 11.618C44.2578 12.3647 44.1551 13.2187 44.1551 14.18C44.1551 15.1507 44.2718 16.0047 44.5051 16.742C44.7478 17.4793 45.0698 18.0487 45.4711 18.45C45.8818 18.8513 46.3344 19.052 46.8291 19.052C47.3424 19.052 47.7951 18.8467 48.1871 18.436C48.5791 18.016 48.8778 17.4327 49.0831 16.686C49.2978 15.9393 49.4051 15.0853 49.4051 14.124C49.4051 13.1533 49.2838 12.2993 49.0411 11.562C48.8078 10.8247 48.4858 10.2553 48.0751 9.854C47.6738 9.45267 47.2258 9.252 46.7311 9.252Z" fill="white"/>
<path d="M63.8833 9.476C63.5753 9.52267 63.3466 9.602 63.1973 9.714C63.0573 9.826 62.9593 10.0033 62.9033 10.246C62.8566 10.4887 62.8333 10.848 62.8333 11.324V19.136L62.4973 19.122L62.1193 19.136L56.0433 11.436V16.812C56.0433 17.3627 56.0713 17.7687 56.1273 18.03C56.1833 18.282 56.3046 18.4687 56.4913 18.59C56.6779 18.702 56.9813 18.7813 57.4013 18.828V19.108C57.0373 19.08 56.5333 19.066 55.8893 19.066C55.3759 19.066 54.9699 19.08 54.6713 19.108V18.828C54.9793 18.7813 55.2033 18.702 55.3433 18.59C55.4926 18.478 55.5906 18.3007 55.6373 18.058C55.6933 17.8153 55.7213 17.456 55.7213 16.98V10.68C55.7213 10.3253 55.6933 10.0687 55.6373 9.91C55.5906 9.75133 55.4926 9.644 55.3433 9.588C55.2033 9.532 54.9793 9.49467 54.6713 9.476V9.196C54.9699 9.224 55.3759 9.238 55.8893 9.238C56.3559 9.238 56.7573 9.224 57.0933 9.196L62.5113 15.874V11.492C62.5113 10.9413 62.4833 10.54 62.4273 10.288C62.3713 10.0267 62.2499 9.84 62.0633 9.728C61.8766 9.60667 61.5733 9.52267 61.1533 9.476V9.196C61.5173 9.224 62.0213 9.238 62.6653 9.238C63.188 9.238 63.5939 9.224 63.8833 9.196V9.476Z" fill="white"/>
<path d="M77.0971 19.01C76.9384 20.0647 76.6164 20.7927 76.1311 21.194C75.9258 21.362 75.6644 21.4927 75.3471 21.586C75.0391 21.6887 74.6984 21.74 74.3251 21.74C73.8211 21.74 73.3218 21.6607 72.8271 21.502C72.3418 21.3433 71.7398 21.1053 71.0211 20.788C70.8438 20.7133 70.6478 20.6293 70.4331 20.536C70.2278 20.452 69.9944 20.3587 69.7331 20.256L69.3971 20.158C69.2198 20.2513 69.0238 20.3213 68.8091 20.368C68.6038 20.424 68.4078 20.452 68.2211 20.452C68.0251 20.452 67.8664 20.4193 67.7451 20.354C67.6238 20.298 67.5631 20.2093 67.5631 20.088C67.5631 19.836 67.8198 19.71 68.3331 19.71C68.6784 19.71 69.0331 19.7753 69.3971 19.906C69.7144 19.8127 70.0504 19.6867 70.4051 19.528C70.4704 19.5 70.5684 19.458 70.6991 19.402C70.8298 19.3553 70.9464 19.3133 71.0491 19.276C70.1811 19.192 69.4204 18.94 68.7671 18.52C68.1231 18.0907 67.6238 17.512 67.2691 16.784C66.9238 16.056 66.7511 15.2067 66.7511 14.236C66.7511 13.2093 66.9611 12.2993 67.3811 11.506C67.8011 10.7127 68.3844 10.0967 69.1311 9.658C69.8871 9.21933 70.7458 9 71.7071 9C72.6964 9 73.5598 9.20067 74.2971 9.602C75.0438 10.0033 75.6224 10.5867 76.0331 11.352C76.4438 12.108 76.6491 13.0133 76.6491 14.068C76.6491 15.0573 76.4531 15.944 76.0611 16.728C75.6691 17.5027 75.1184 18.114 74.4091 18.562C73.6998 19.01 72.8924 19.2527 71.9871 19.29C71.7631 19.318 71.5624 19.36 71.3851 19.416C71.2078 19.472 70.9978 19.5513 70.7551 19.654C70.4564 19.7847 70.1671 19.892 69.8871 19.976L71.0211 20.074C72.2064 20.1767 73.0604 20.228 73.5831 20.228C73.9284 20.228 74.2784 20.2047 74.6331 20.158C75.2118 20.0927 75.6691 19.9667 76.0051 19.78C76.3411 19.6027 76.6211 19.3227 76.8451 18.94L77.0971 19.01ZM69.0751 14.18C69.0751 15.1507 69.1918 16.0047 69.4251 16.742C69.6678 17.4793 69.9898 18.0487 70.3911 18.45C70.8018 18.8513 71.2544 19.052 71.7491 19.052C72.2624 19.052 72.7151 18.8467 73.1071 18.436C73.4991 18.016 73.7978 17.4327 74.0031 16.686C74.2178 15.9393 74.3251 15.0853 74.3251 14.124C74.3251 13.1533 74.2038 12.2993 73.9611 11.562C73.7278 10.8247 73.4058 10.2553 72.9951 9.854C72.5938 9.45267 72.1458 9.252 71.6511 9.252C71.1378 9.252 70.6851 9.462 70.2931 9.882C69.9011 10.2927 69.5978 10.8713 69.3831 11.618C69.1778 12.3647 69.0751 13.2187 69.0751 14.18Z" fill="white"/>
<path d="M88.5363 9.476C88.2283 9.52267 87.9996 9.602 87.8503 9.714C87.7103 9.826 87.6123 10.0033 87.5563 10.246C87.5096 10.4887 87.4863 10.848 87.4863 11.324V15.034C87.4863 16.3687 87.295 17.358 86.9123 18.002C86.6603 18.4127 86.2963 18.7347 85.8203 18.968C85.3443 19.192 84.761 19.304 84.0703 19.304C82.9876 19.304 82.1476 19.0707 81.5503 18.604C81.121 18.2587 80.8316 17.8247 80.6823 17.302C80.533 16.77 80.4583 16.028 80.4583 15.076V10.68C80.4583 10.3253 80.4303 10.0687 80.3743 9.91C80.3276 9.75133 80.2296 9.644 80.0803 9.588C79.9403 9.532 79.7163 9.49467 79.4083 9.476V9.196C79.8843 9.224 80.6123 9.238 81.5923 9.238C82.563 9.238 83.305 9.224 83.8183 9.196V9.476C83.4823 9.49467 83.235 9.532 83.0763 9.588C82.927 9.644 82.8243 9.75133 82.7683 9.91C82.7123 10.0687 82.6843 10.3253 82.6843 10.68V15.958C82.6843 16.938 82.8243 17.6613 83.1043 18.128C83.3936 18.5853 83.8976 18.814 84.6163 18.814C85.5496 18.814 86.2076 18.5013 86.5903 17.876C86.973 17.2413 87.1643 16.3453 87.1643 15.188V11.492C87.1643 10.9507 87.1316 10.5493 87.0663 10.288C87.001 10.0267 86.875 9.84 86.6883 9.728C86.5016 9.60667 86.2076 9.52267 85.8063 9.476V9.196C86.161 9.224 86.665 9.238 87.3183 9.238C87.841 9.238 88.247 9.224 88.5363 9.196V9.476Z" fill="white"/>
<path d="M98.9026 16.98C98.9026 17.8387 98.9353 18.548 99.0006 19.108C98.366 19.08 97.2973 19.066 95.7946 19.066C93.76 19.066 92.2386 19.08 91.2306 19.108V18.828C91.5386 18.8093 91.7626 18.772 91.9026 18.716C92.052 18.66 92.15 18.5527 92.1966 18.394C92.2526 18.2353 92.2806 17.9787 92.2806 17.624V10.68C92.2806 10.3253 92.2526 10.0687 92.1966 9.91C92.15 9.75133 92.052 9.644 91.9026 9.588C91.7626 9.532 91.5386 9.49467 91.2306 9.476V9.196C92.2386 9.224 93.76 9.238 95.7946 9.238C97.1666 9.238 98.142 9.224 98.7206 9.196C98.6553 9.97067 98.6226 10.6613 98.6226 11.268C98.6226 11.6787 98.6366 11.996 98.6646 12.22H98.3426C98.2026 11.2213 97.9506 10.5213 97.5866 10.12C97.2226 9.71867 96.7093 9.518 96.0466 9.518H95.4726C95.1833 9.518 94.9733 9.54133 94.8426 9.588C94.712 9.63467 94.6233 9.728 94.5766 9.868C94.53 9.99867 94.5066 10.2133 94.5066 10.512V13.984H94.9546C95.4493 13.984 95.8226 13.802 96.0746 13.438C96.336 13.074 96.518 12.64 96.6206 12.136H96.9426C96.9146 12.528 96.9006 12.9667 96.9006 13.452V14.124C96.9006 14.6 96.9286 15.2627 96.9846 16.112H96.6626C96.4666 14.88 95.8973 14.264 94.9546 14.264H94.5066V17.792C94.5066 18.0907 94.53 18.31 94.5766 18.45C94.6233 18.5807 94.712 18.6693 94.8426 18.716C94.9733 18.7627 95.1833 18.786 95.4726 18.786H96.1586C96.8213 18.786 97.3533 18.562 97.7546 18.114C98.1653 17.6567 98.4546 16.8867 98.6226 15.804H98.9446C98.9166 16.112 98.9026 16.504 98.9026 16.98Z" fill="white"/>
<path d="M105.564 9.014C106.049 9.014 106.436 9.06067 106.726 9.154C107.015 9.24733 107.309 9.38267 107.608 9.56C107.71 9.616 107.799 9.66267 107.874 9.7C107.958 9.73733 108.028 9.756 108.084 9.756C108.168 9.756 108.233 9.70933 108.28 9.616C108.326 9.51333 108.364 9.35467 108.392 9.14H108.714C108.667 9.76533 108.644 10.8293 108.644 12.332H108.322C108.284 11.828 108.168 11.3473 107.972 10.89C107.785 10.4327 107.514 10.064 107.16 9.784C106.814 9.49467 106.408 9.35 105.942 9.35C105.484 9.35 105.111 9.48067 104.822 9.742C104.542 9.994 104.402 10.3393 104.402 10.778C104.402 11.1047 104.472 11.3893 104.612 11.632C104.752 11.8747 104.948 12.0987 105.2 12.304C105.452 12.5 105.839 12.7707 106.362 13.116L106.81 13.424C107.36 13.788 107.794 14.1053 108.112 14.376C108.429 14.6467 108.686 14.964 108.882 15.328C109.087 15.6827 109.19 16.098 109.19 16.574C109.19 17.1713 109.036 17.6753 108.728 18.086C108.42 18.4873 108 18.7907 107.468 18.996C106.945 19.2013 106.362 19.304 105.718 19.304C105.195 19.304 104.761 19.2573 104.416 19.164C104.07 19.0707 103.753 18.9447 103.464 18.786C103.258 18.6553 103.1 18.59 102.988 18.59C102.904 18.59 102.838 18.6413 102.792 18.744C102.745 18.8373 102.708 18.9913 102.68 19.206H102.358C102.395 18.618 102.414 17.358 102.414 15.426H102.736C102.801 16.4713 103.034 17.3207 103.436 17.974C103.837 18.618 104.453 18.94 105.284 18.94C105.788 18.94 106.203 18.8047 106.53 18.534C106.856 18.2633 107.02 17.876 107.02 17.372C107.02 16.8493 106.852 16.4013 106.516 16.028C106.18 15.6547 105.648 15.2347 104.92 14.768C104.36 14.404 103.912 14.0867 103.576 13.816C103.24 13.5453 102.964 13.228 102.75 12.864C102.535 12.4907 102.428 12.0613 102.428 11.576C102.428 11.016 102.568 10.5447 102.848 10.162C103.137 9.77 103.52 9.48067 103.996 9.294C104.472 9.10733 104.994 9.014 105.564 9.014Z" fill="white"/>
<path d="M120.711 9.196C120.646 10.0827 120.613 10.876 120.613 11.576C120.613 12.0147 120.627 12.3693 120.655 12.64H120.333C120.109 11.492 119.801 10.6847 119.409 10.218C119.027 9.75133 118.499 9.518 117.827 9.518H117.505V17.512C117.505 17.904 117.543 18.1887 117.617 18.366C117.701 18.5433 117.841 18.6647 118.037 18.73C118.243 18.786 118.565 18.8187 119.003 18.828V19.108C117.827 19.08 116.941 19.066 116.343 19.066C115.755 19.066 114.901 19.08 113.781 19.108V18.828C114.22 18.8187 114.537 18.786 114.733 18.73C114.939 18.6647 115.079 18.5433 115.153 18.366C115.237 18.1887 115.279 17.904 115.279 17.512V9.518H114.971C114.523 9.518 114.141 9.616 113.823 9.812C113.515 10.008 113.249 10.3347 113.025 10.792C112.801 11.24 112.61 11.856 112.451 12.64H112.129C112.157 12.3693 112.171 12.0147 112.171 11.576C112.171 10.876 112.139 10.0827 112.073 9.196C112.923 9.224 114.365 9.238 116.399 9.238C118.434 9.238 119.871 9.224 120.711 9.196Z" fill="white"/>
<path fill-rule="evenodd" clip-rule="evenodd" d="M25.5425 13.606C25.5424 13.6094 25.5422 13.6128 25.542 13.6163C25.3288 17.8681 22.958 21.9065 18.9327 24.0649C18.9229 24.0701 18.9132 24.0754 18.9034 24.0806C16.5603 25.3292 13.9985 25.76 11.546 25.472C11.2104 25.4326 10.8769 25.3798 10.5463 25.3138C6.99583 24.6045 3.77813 22.3728 1.93356 18.9327C-1.34343 12.8213 0.954315 5.21054 7.06571 1.93356C8.20565 1.32231 9.39775 0.905026 10.6042 0.670266C10.9368 0.605538 11.2705 0.554686 11.6045 0.51747C13.8686 0.265209 16.1462 0.639478 18.1902 1.56567C18.2001 1.57017 18.21 1.57468 18.2199 1.57921C20.6315 2.67952 22.7156 4.54934 24.0649 7.06571C25.1818 9.1486 25.6511 11.4057 25.5425 13.606ZM10.5994 2.71634L10.5511 23.2678C7.71675 22.5911 5.17911 20.7532 3.69615 17.9876C0.941142 12.8497 2.87289 6.45116 8.01084 3.69615C8.84907 3.24668 9.71872 2.92255 10.5994 2.71634ZM12.5505 23.5477L12.6 2.44785C14.2436 2.38713 15.8771 2.71329 17.3647 3.38738C19.4027 4.31087 21.1622 5.88464 22.3023 8.01083C23.2442 9.76751 23.6373 11.6657 23.5445 13.5161C23.365 17.0967 21.3696 20.4888 17.9876 22.3023C16.2534 23.2322 14.3801 23.6277 12.5505 23.5477Z" fill="url(#paint0_linear_0_486)"/>
<defs>
<linearGradient id="paint0_linear_0_486" x1="0.914146" y1="11.338" x2="27.354" y2="12.9979" gradientUnits="userSpaceOnUse">
<stop offset="0.288448" stop-color="white"/>
<stop offset="0.780176" stop-color="white" stop-opacity="0"/>
</linearGradient>
</defs>
</svg>

<svg width="121" height="26" viewBox="0 0 121 26" fill="none" xmlns="http://www.w3.org/2000/svg"><path d="M34.956 9c.56 0 1.036.08 1.428.238.392.159.775.383 1.148.672.103.084.191.126.266.126.187 0 .308-.28.364-.84h.322c-.037.635-.056 1.764-.056 3.388h-.322c-.084-.69-.196-1.218-.336-1.582a2.257 2.257 0 00-.714-.952 2.288 2.288 0 00-.812-.504 2.612 2.612 0 00-.966-.182c-.943 0-1.643.462-2.1 1.386-.457.915-.686 2.058-.686 3.43 0 1.363.238 2.501.714 3.416s1.185 1.372 2.128 1.372c.317 0 .63-.056.938-.168a2.15 2.15 0 00.798-.518c.345-.261.583-.588.714-.98.14-.392.247-.966.322-1.722h.322c0 1.69.019 2.865.056 3.528h-.322c-.028-.299-.07-.509-.126-.63-.047-.13-.117-.196-.21-.196-.075 0-.173.037-.294.112-.42.299-.821.527-1.204.686-.383.15-.845.224-1.386.224-.99 0-1.857-.2-2.604-.602a4.228 4.228 0 01-1.722-1.736c-.41-.765-.616-1.675-.616-2.73 0-1.027.21-1.937.63-2.73a4.578 4.578 0 011.75-1.848C33.136 9.219 33.995 9 34.956 9zM46.787 9c.99 0 1.853.2 2.59.602a4.185 4.185 0 011.736 1.75c.41.756.616 1.661.616 2.716 0 1.027-.21 1.937-.63 2.73a4.55 4.55 0 01-1.764 1.848c-.747.439-1.6.658-2.562.658-.99 0-1.857-.2-2.604-.602a4.228 4.228 0 01-1.722-1.736c-.41-.765-.616-1.675-.616-2.73 0-1.027.21-1.937.63-2.73a4.578 4.578 0 011.75-1.848C44.967 9.219 45.826 9 46.787 9zm-.056.252c-.513 0-.966.21-1.358.63-.392.41-.695.99-.91 1.736-.205.747-.308 1.6-.308 2.562 0 .97.117 1.825.35 2.562.243.737.565 1.307.966 1.708.41.401.863.602 1.358.602.513 0 .966-.205 1.358-.616.392-.42.69-1.003.896-1.75.215-.747.322-1.6.322-2.562 0-.97-.121-1.825-.364-2.562-.233-.737-.555-1.307-.966-1.708-.401-.401-.85-.602-1.344-.602zM63.883 9.476c-.308.047-.536.126-.686.238-.14.112-.238.29-.294.532-.046.243-.07.602-.07 1.078v7.812l-.336-.014-.378.014-6.076-7.7v5.376c0 .55.028.957.084 1.218.056.252.178.439.364.56.187.112.49.191.91.238v.28a20.923 20.923 0 00-1.512-.042c-.513 0-.92.014-1.218.042v-.28c.308-.047.532-.126.672-.238.15-.112.248-.29.294-.532.056-.243.084-.602.084-1.078v-6.3c0-.355-.028-.611-.084-.77a.464.464 0 00-.294-.322c-.14-.056-.364-.093-.672-.112v-.28c.299.028.705.042 1.218.042.467 0 .868-.014 1.204-.042l5.418 6.678v-4.382c0-.55-.028-.952-.084-1.204-.056-.261-.177-.448-.364-.56-.186-.121-.49-.205-.91-.252v-.28c.364.028.868.042 1.512.042.523 0 .929-.014 1.218-.042v.28zM77.097 19.01c-.159 1.055-.48 1.783-.966 2.184a2.206 2.206 0 01-.784.392 3.216 3.216 0 01-1.022.154c-.504 0-1.003-.08-1.498-.238a20.163 20.163 0 01-1.806-.714 57.58 57.58 0 01-.588-.252 54.963 54.963 0 00-.7-.28l-.336-.098a2.31 2.31 0 01-.588.21 2.234 2.234 0 01-.588.084c-.196 0-.355-.033-.476-.098-.121-.056-.182-.145-.182-.266 0-.252.257-.378.77-.378.345 0 .7.065 1.064.196.317-.093.653-.22 1.008-.378l.294-.126.35-.126c-.868-.084-1.629-.336-2.282-.756a4.309 4.309 0 01-1.498-1.736c-.345-.728-.518-1.577-.518-2.548 0-1.027.21-1.937.63-2.73a4.578 4.578 0 011.75-1.848C69.887 9.219 70.746 9 71.707 9c.99 0 1.853.2 2.59.602a4.185 4.185 0 011.736 1.75c.41.756.616 1.661.616 2.716 0 .99-.196 1.876-.588 2.66a4.554 4.554 0 01-1.652 1.834c-.71.448-1.517.69-2.422.728a3.41 3.41 0 00-.602.126 7.297 7.297 0 00-.63.238c-.299.13-.588.238-.868.322l1.134.098c1.185.103 2.04.154 2.562.154.345 0 .695-.023 1.05-.07.579-.065 1.036-.191 1.372-.378.336-.177.616-.457.84-.84l.252.07zm-8.022-4.83c0 .97.117 1.825.35 2.562.243.737.565 1.307.966 1.708.41.401.863.602 1.358.602.513 0 .966-.205 1.358-.616.392-.42.69-1.003.896-1.75.215-.747.322-1.6.322-2.562 0-.97-.121-1.825-.364-2.562-.233-.737-.555-1.307-.966-1.708-.401-.401-.85-.602-1.344-.602-.513 0-.966.21-1.358.63-.392.41-.695.99-.91 1.736-.205.747-.308 1.6-.308 2.562zM88.536 9.476c-.308.047-.536.126-.686.238-.14.112-.238.29-.294.532-.046.243-.07.602-.07 1.078v3.71c0 1.335-.191 2.324-.574 2.968a2.57 2.57 0 01-1.092.966c-.476.224-1.059.336-1.75.336-1.082 0-1.922-.233-2.52-.7a2.525 2.525 0 01-.868-1.302c-.149-.532-.224-1.274-.224-2.226V10.68c0-.355-.028-.611-.084-.77a.464.464 0 00-.294-.322c-.14-.056-.364-.093-.672-.112v-.28c.476.028 1.204.042 2.184.042.971 0 1.713-.014 2.226-.042v.28c-.336.019-.583.056-.742.112a.504.504 0 00-.308.322c-.056.159-.084.415-.084.77v5.278c0 .98.14 1.703.42 2.17.29.457.794.686 1.512.686.934 0 1.592-.313 1.974-.938.383-.635.574-1.53.574-2.688v-3.696c0-.541-.032-.943-.098-1.204-.065-.261-.191-.448-.378-.56-.186-.121-.48-.205-.882-.252v-.28c.355.028.859.042 1.512.042.523 0 .929-.014 1.218-.042v.28zM98.903 16.98c0 .859.032 1.568.098 2.128a83.464 83.464 0 00-3.206-.042c-2.035 0-3.556.014-4.564.042v-.28c.308-.019.532-.056.672-.112a.464.464 0 00.294-.322c.056-.159.084-.415.084-.77V10.68c0-.355-.028-.611-.084-.77a.464.464 0 00-.294-.322c-.14-.056-.364-.093-.672-.112v-.28c1.008.028 2.529.042 4.564.042a69.49 69.49 0 002.926-.042 24.95 24.95 0 00-.098 2.072c0 .41.014.728.042.952h-.322c-.14-.999-.392-1.699-.756-2.1s-.878-.602-1.54-.602h-.574c-.29 0-.5.023-.63.07a.42.42 0 00-.266.28c-.047.13-.07.345-.07.644v3.472h.448c.494 0 .868-.182 1.12-.546.261-.364.443-.798.546-1.302h.322c-.028.392-.042.83-.042 1.316v.672c0 .476.028 1.139.084 1.988h-.322c-.196-1.232-.766-1.848-1.708-1.848h-.448v3.528c0 .299.023.518.07.658a.42.42 0 00.266.266c.13.047.34.07.63.07h.686c.662 0 1.194-.224 1.596-.672.41-.457.7-1.227.868-2.31h.322c-.028.308-.042.7-.042 1.176zM105.564 9.014c.485 0 .872.047 1.162.14.289.093.583.229.882.406.102.056.191.103.266.14a.543.543 0 00.21.056c.084 0 .149-.047.196-.14.046-.103.084-.261.112-.476h.322c-.047.625-.07 1.69-.07 3.192h-.322a4.491 4.491 0 00-.35-1.442 2.663 2.663 0 00-.812-1.106 1.84 1.84 0 00-1.218-.434c-.458 0-.831.13-1.12.392-.28.252-.42.597-.42 1.036 0 .327.07.611.21.854.14.243.336.467.588.672.252.196.639.467 1.162.812l.448.308c.55.364.984.681 1.302.952a3.3 3.3 0 01.77.952c.205.355.308.77.308 1.246 0 .597-.154 1.101-.462 1.512-.308.401-.728.705-1.26.91a4.752 4.752 0 01-1.75.308c-.523 0-.957-.047-1.302-.14a4.288 4.288 0 01-.952-.378c-.206-.13-.364-.196-.476-.196-.084 0-.15.051-.196.154-.047.093-.084.247-.112.462h-.322c.037-.588.056-1.848.056-3.78h.322c.065 1.045.298 1.895.7 2.548.401.644 1.017.966 1.848.966.504 0 .919-.135 1.246-.406.326-.27.49-.658.49-1.162 0-.523-.168-.97-.504-1.344-.336-.373-.868-.793-1.596-1.26a16.765 16.765 0 01-1.344-.952 3.483 3.483 0 01-.826-.952 2.534 2.534 0 01-.322-1.288c0-.56.14-1.031.42-1.414a2.548 2.548 0 011.148-.868c.476-.187.998-.28 1.568-.28zM120.711 9.196c-.065.887-.098 1.68-.098 2.38 0 .439.014.793.042 1.064h-.322c-.224-1.148-.532-1.955-.924-2.422-.382-.467-.91-.7-1.582-.7h-.322v7.994c0 .392.038.677.112.854a.681.681 0 00.42.364c.206.056.528.089.966.098v.28a121.691 121.691 0 00-2.66-.042c-.588 0-1.442.014-2.562.042v-.28c.439-.01.756-.042.952-.098a.633.633 0 00.42-.364c.084-.177.126-.462.126-.854V9.518h-.308c-.448 0-.83.098-1.148.294-.308.196-.574.523-.798.98-.224.448-.415 1.064-.574 1.848h-.322c.028-.27.042-.625.042-1.064 0-.7-.032-1.493-.098-2.38.85.028 2.292.042 4.326.042 2.035 0 3.472-.014 4.312-.042z" fill="#fff"/><path fill-rule="evenodd" clip-rule="evenodd" d="M25.543 13.606l-.001.01a12.55 12.55 0 01-6.61 10.449l-.029.016a12.497 12.497 0 01-8.357 1.233 12.53 12.53 0 01-8.612-6.381c-3.277-6.112-.98-13.722 5.132-17A12.553 12.553 0 0111.604.518 12.594 12.594 0 0118.22 1.58a12.501 12.501 0 015.845 5.487 12.497 12.497 0 011.477 6.54zM10.598 2.716l-.048 20.552a10.527 10.527 0 01-6.855-5.28C.941 12.85 2.873 6.45 8.011 3.696c.838-.45 1.708-.773 2.588-.98zm1.951 20.832l.05-21.1c1.644-.06 3.277.265 4.765.94a10.502 10.502 0 014.937 4.623 10.55 10.55 0 01-4.315 14.291 10.498 10.498 0 01-5.437 1.246z" fill="url(#paint0_linear_0_486)"/><defs><linearGradient id="paint0_linear_0_486" x1=".914" y1="11.338" x2="27.354" y2="12.998" gradientUnits="userSpaceOnUse"><stop offset=".288" stop-color="#fff"/><stop offset=".78" stop-color="#fff" stop-opacity="0"/></linearGradient></defs></svg>
